48x48/apps/chinese.svg

<svg xmlns="http://www.w3.org/2000/svg" width="48" height="48" version="1">
 <rect fill="#2095f2" width="40" height="40" x="4" y="4" rx="2" ry="2"/>
 <path style="opacity:0.2" d="M 31.791016,11.708984 C 31.082155,13.599391 30.255695,15.345991 29.310547,17 l -8.324219,0 0,2 3.072266,0 0,5.041016 C 24.058581,24.749802 24.018204,25.369895 23.939453,26 l -3.898437,0 0,2 3.662109,0 c -0.472462,4.174501 -2.087007,7.180746 -4.84375,9.228516 L 20.113281,39 c 3.229391,-2.363056 5.120508,-5.959163 5.671875,-11 l 5.296875,0 0,10.882812 1.917969,0 L 33,28 l 5,0 0,-2 -5,0 0,-7 4,0 0,-2 -5.208984,0 c 0.866373,-1.338984 1.73318,-2.849211 2.599609,-4.582031 L 31.791016,11.708984 Z M 15,12 l 0,5 -4.054688,0 0,2 L 15,19 l 0,5.941406 c -1.496533,0.630198 -3.267198,1.258567 -5,1.888672 l 0.826172,2.484375 C 12.243931,28.763104 13.739772,28.211505 15,27.660156 l 0,7.44336 c -1.9e-5,0.945166 -0.153057,1.417968 -0.546875,1.417968 -1.102846,0 -2.167483,-0.157594 -3.191406,-0.472656 l 0.273437,2.480469 c 0.945297,0.236283 1.86996,0.353515 2.972656,0.353515 0.945074,0 1.613977,-0.23641 2.007813,-0.708984 C 16.909445,37.70118 17,36.874812 17,35.693359 l 0,-9.214843 3.132812,-1.890625 -0.355468,-2.126953 0,-0.002 C 18.753272,22.931576 18.023922,23.444765 17,23.996094 L 17,19 l 3.013672,0 0,-2 L 17,17 l 0,-5 -2,0 z m 10.003906,0.0625 -2.363281,0.708984 c 0.866298,1.102659 1.535221,2.363529 2.007813,3.78125 l 2.480468,-0.826172 C 26.656388,14.38758 25.949054,13.165216 25.003906,12.0625 Z M 26.021484,19 l 5.060547,0 0,7 -5.179687,0 c 0.07875,-0.551349 0.119123,-1.052149 0.11914,-1.603516 l 0,-5.396484 z"/>
 <path style="fill:#f4f4f7" d="M 31.791016 10.708984 C 31.082155 12.599391 30.255695 14.345991 29.310547 16 L 20.986328 16 L 20.986328 18 L 24.058594 18 L 24.058594 23.041016 C 24.058581 23.749802 24.018204 24.369895 23.939453 25 L 20.041016 25 L 20.041016 27 L 23.703125 27 C 23.230663 31.174501 21.616118 34.180746 18.859375 36.228516 L 20.113281 38 C 23.342672 35.636944 25.233789 32.040837 25.785156 27 L 31.082031 27 L 31.082031 37.882812 L 33 37.882812 L 33 27 L 38 27 L 38 25 L 33 25 L 33 18 L 37 18 L 37 16 L 31.791016 16 C 32.657389 14.661016 33.524196 13.150789 34.390625 11.417969 L 31.791016 10.708984 z M 15 11 L 15 16 L 10.945312 16 L 10.945312 18 L 15 18 L 15 23.941406 C 13.503467 24.571604 11.732802 25.199973 10 25.830078 L 10.826172 28.314453 C 12.243931 27.763104 13.739772 27.211505 15 26.660156 L 15 34.103516 C 14.999981 35.048682 14.846943 35.521484 14.453125 35.521484 C 13.350279 35.521484 12.285642 35.36389 11.261719 35.048828 L 11.535156 37.529297 C 12.480453 37.76558 13.405116 37.882812 14.507812 37.882812 C 15.452886 37.882812 16.121789 37.646402 16.515625 37.173828 C 16.909445 36.70118 17 35.874812 17 34.693359 L 17 25.478516 L 20.132812 23.587891 L 19.777344 21.460938 L 19.777344 21.458984 C 18.753272 21.931576 18.023922 22.444765 17 22.996094 L 17 18 L 20.013672 18 L 20.013672 16 L 17 16 L 17 11 L 15 11 z M 25.003906 11.0625 L 22.640625 11.771484 C 23.506923 12.874143 24.175846 14.135013 24.648438 15.552734 L 27.128906 14.726562 C 26.656388 13.38758 25.949054 12.165216 25.003906 11.0625 z M 26.021484 18 L 31.082031 18 L 31.082031 25 L 25.902344 25 C 25.981094 24.448651 26.021467 23.947851 26.021484 23.396484 L 26.021484 18 z"/>
 <path fill="#fff" style="opacity:0.2" d="m6 4c-1.108 0-2 0.892-2 2v1c0-1.108 0.892-2 2-2h36c1.108 0 2 0.892 2 2v-1c0-1.108-0.892-2-2-2h-36z"/>
 <path opacity=".2" d="m6 45c-1.108 0-2-0.892-2-2v-1c0 1.108 0.892 2 2 2h36c1.108 0 2-0.892 2-2v1c0 1.108-0.892 2-2 2h-36z"/>
</svg>

<svg xmlns="http://www.w3.org/2000/svg" width="48" height="48" version="1"><rect fill="#2095f2" width="40" height="40" x="4" y="4" rx="2" ry="2"/><path style="opacity:.2" d="M31.791 11.709A36.268 36.268 0 0 1 29.311 17h-8.325v2h3.073v5.041c0 .709-.04 1.329-.12 1.959h-3.898v2h3.662c-.472 4.175-2.087 7.18-4.844 9.229L20.113 39c3.23-2.363 5.12-5.96 5.672-11h5.297v10.883H33V28h5v-2h-5v-7h4v-2h-5.209a47.537 47.537 0 0 0 2.6-4.582l-2.6-.709zM15 12v5h-4.055v2H15v5.941c-1.497.63-3.267 1.259-5 1.89l.826 2.483c1.418-.55 2.914-1.102 4.174-1.654v7.444c0 .945-.153 1.417-.547 1.417-1.103 0-2.167-.157-3.191-.472l.273 2.48c.945.237 1.87.354 2.973.354.945 0 1.614-.237 2.008-.71.393-.472.484-1.298.484-2.48V26.48l3.133-1.891-.356-2.127v-.002c-1.024.473-1.753.986-2.777 1.537V19h3.014v-2H17v-5h-2zm10.004.063-2.363.708c.866 1.103 1.535 2.364 2.007 3.782l2.48-.826a11.438 11.438 0 0 0-2.124-3.665zM26.02 19h5.061v7h-5.18c.08-.551.12-1.052.12-1.604V19z"/><path style="fill:#f4f4f7" d="M31.791 10.709A36.268 36.268 0 0 1 29.311 16h-8.325v2h3.073v5.041c0 .709-.04 1.329-.12 1.959h-3.898v2h3.662c-.472 4.175-2.087 7.18-4.844 9.229L20.113 38c3.23-2.363 5.12-5.96 5.672-11h5.297v10.883H33V27h5v-2h-5v-7h4v-2h-5.209a47.537 47.537 0 0 0 2.6-4.582l-2.6-.709zM15 11v5h-4.055v2H15v5.941c-1.497.63-3.267 1.259-5 1.89l.826 2.483c1.418-.55 2.914-1.102 4.174-1.654v7.444c0 .945-.153 1.417-.547 1.417-1.103 0-2.167-.157-3.191-.472l.273 2.48c.945.237 1.87.354 2.973.354.945 0 1.614-.237 2.008-.71.393-.472.484-1.298.484-2.48V25.48l3.133-1.891-.356-2.127v-.002c-1.024.473-1.753.986-2.777 1.537V18h3.014v-2H17v-5h-2zm10.004.063-2.363.708c.866 1.103 1.535 2.364 2.007 3.782l2.48-.826a11.438 11.438 0 0 0-2.124-3.665zM26.02 18h5.061v7h-5.18c.08-.551.12-1.052.12-1.604V18z"/><path fill="#fff" style="opacity:.2" d="M6 4c-1.108 0-2 .892-2 2v1c0-1.108.892-2 2-2h36c1.108 0 2 .892 2 2V6c0-1.108-.892-2-2-2H6z"/><path opacity=".2" d="M6 45c-1.108 0-2-.892-2-2v-1c0 1.108.892 2 2 2h36c1.108 0 2-.892 2-2v1c0 1.108-.892 2-2 2H6z"/></svg>
